public/images/stack-items/themes-icon.svg

<svg height="35" viewBox="0 0 34 35" width="34" xmlns="http://www.w3.org/2000/svg"><path d="m70.3419355 39.7046477c-.383871-.4407796-.9322581-.6611694-1.5354839-.6611694h-2.7419355v1.101949h2.7419355c.2741936 0 .5483871.1101949.7677419.3305847.2193549.2203898.3290323.4958771.3290323.7713643v19.284108h-31.8064516v-19.284108c0-.2754872.1096774-.5509745.3290323-.7713643.2193548-.2203898.4935483-.3305847.7677419-.3305847h2.7419355v-1.101949h-2.7419355c-.6032258 0-1.1516129.2203898-1.5354839.6611694-.4387097.3856821-.6580645.9366566-.6580645 1.5427286v19.284108 1.101949 2.203898c0 .606072.2193548 1.1570465.6580645 1.5427287.383871.4407796.9322581.6611694 1.5354839.6611694h10.3645161l-.4387097 3.3058471h-.6032258c-.4387096 0-.8774193.1652923-1.1516129.495877-.2741935.3305847-.4935484.7162669-.4935484 1.1570465h1.0967742c0-.1652924.0548387-.2754873.1645162-.3856822.1096774-.1101949.2193548-.1652923.3838709-.1652923h10.967742c.1645161 0 .2741935.0550974.3838709.1652923.1096775.1101949.1645162.2203898.1645162.3856822h1.0967742c0-.4407796-.1645162-.8815592-.4935484-1.1570465-.3290323-.2754872-.7129033-.495877-1.1516129-.495877h-.6032258l-.4387097-3.3058471h10.3645161c.6032258 0 1.1516129-.2203898 1.5354839-.6611694s.6580645-.9366567.6580645-1.5427287v-2.203898-1.101949-19.284108c0-.606072-.2193548-1.1570465-.6580645-1.5427286zm-12.9419355 29.7736132h-7.5555556l.4380033-3.0434783h6.6795491zm12.0888889-5.5797102c0 .2536232-.1094253.5072464-.3282759.710145-.2188505.2028985-.4924138.3043478-.765977.3043478h-29.5448276c-.2735632 0-.5471264-.1014493-.765977-.3043478-.2188506-.2028986-.3282758-.4565218-.3282758-.710145v-2.0289855h31.7333333zm-14.3555556-.5072464h-3.0222222v-.7608695h3.0222222zm-14.7753086-4.9014155v-15.9074823h1.637037v-1.0970678h-2.728395v18.1016178h29.4666666v-18.1016178h-2.728395v1.0970678h1.637037v15.9074823h-2.7283951v-18.8695652l-3.6014814-3.6203236h-18.225679v22.4898888zm7.9753086-.7705212h1.0074074v-1.1067194h-1.0074074v-1.1067193h1.0074074v-1.1067194h-1.0074074v-1.1067194h1.0074074v-1.1067193h-1.0074074v-1.1067194h1.0074074v-1.1067194h-1.0074074v-3.3201581h3.0222223v12.1739131h-3.0222223zm7.5555556-10.3063241.7555555 1.1080625v10.304981h-.7555555zm3.0222222 11.4130435h-.7555555v-10.304981l.7555555-1.1080625zm-.7555555-12.1739131-1.5111112-1.4016018 1.5111112-2.402746 1.5111111 2.402746zm3.7777777-9.1304348 1.5111111 1.5217392h-1.5111111zm-18.1333333-.7608695h16.3703704v3.2775919h3.274074v18.0267559h-3.274074v-12.5641026c0-.109253 0-.1638796-.0545679-.2731326l-2.1827161-3.8238573c-.2182716-.3277592-.7639506-.3277592-.9276543 0l-2.1827161 3.8238573c-.1091358.109253-.1091358.1638796-.1091358.2731326v12.5641026h-2.182716v-13.1103679h-5.4567901v13.1103679h-3.2740741zm6.8 10.6521739v.7608695h-.7555556v-.7608695zm9.0666667-7.6086957h-14.3555556v-.7608695h14.3555556zm-6.8 2.2826087h-7.5555556v-.7608695h7.5555556z" fill="#fff" transform="translate(-37 -36)"/></svg>

<?xml version="1.0" encoding="UTF-8"?>
<svg width="34px" height="35px" viewBox="0 0 34 35" version="1.1" xmlns="http://www.w3.org/2000/svg" xmlns:xlink="http://www.w3.org/1999/xlink">
    <!-- Generator: Sketch 50.2 (55047) - http://www.bohemiancoding.com/sketch -->
    <title>themes-icon</title>
    <desc>Created with Sketch.</desc>
    <defs></defs>
    <g id="Landing-Page" stroke="none" stroke-width="1" fill="none" fill-rule="evenodd">
        <g id="landing-v24" transform="translate(-111.000000, -817.000000)" fill="#FFFFFF" fill-rule="nonzero">
            <g id="01-themes" transform="translate(74.000000, 745.000000)">
                <g id="copy" transform="translate(0.000000, 36.000000)">
                    <g id="Group-10">
                        <path d="M70.3419355,39.7046477 C69.9580645,39.2638681 69.4096774,39.0434783 68.8064516,39.0434783 L66.0645161,39.0434783 L66.0645161,40.1454273 L68.8064516,40.1454273 C69.0806452,40.1454273 69.3548387,40.2556222 69.5741935,40.476012 C69.7935484,40.6964018 69.9032258,40.9718891 69.9032258,41.2473763 L69.9032258,60.5314843 L38.0967742,60.5314843 L38.0967742,41.2473763 C38.0967742,40.9718891 38.2064516,40.6964018 38.4258065,40.476012 C38.6451613,40.2556222 38.9193548,40.1454273 39.1935484,40.1454273 L41.9354839,40.1454273 L41.9354839,39.0434783 L39.1935484,39.0434783 C38.5903226,39.0434783 38.0419355,39.2638681 37.6580645,39.7046477 C37.2193548,40.0903298 37,40.6413043 37,41.2473763 L37,60.5314843 L37,61.6334333 L37,63.8373313 C37,64.4434033 37.2193548,64.9943778 37.6580645,65.38006 C38.0419355,65.8208396 38.5903226,66.0412294 39.1935484,66.0412294 L49.5580645,66.0412294 L49.1193548,69.3470765 L48.516129,69.3470765 C48.0774194,69.3470765 47.6387097,69.5123688 47.3645161,69.8429535 C47.0903226,70.1735382 46.8709677,70.5592204 46.8709677,71 L47.9677419,71 C47.9677419,70.8347076 48.0225806,70.7245127 48.1322581,70.6143178 C48.2419355,70.5041229 48.3516129,70.4490255 48.516129,70.4490255 L59.483871,70.4490255 C59.6483871,70.4490255 59.7580645,70.5041229 59.8677419,70.6143178 C59.9774194,70.7245127 60.0322581,70.8347076 60.0322581,71 L61.1290323,71 C61.1290323,70.5592204 60.9645161,70.1184408 60.6354839,69.8429535 C60.3064516,69.5674663 59.9225806,69.3470765 59.483871,69.3470765 L58.8806452,69.3470765 L58.4419355,66.0412294 L68.8064516,66.0412294 C69.4096774,66.0412294 69.9580645,65.8208396 70.3419355,65.38006 C70.7258065,64.9392804 71,64.4434033 71,63.8373313 L71,61.6334333 L71,60.5314843 L71,41.2473763 C71,40.6413043 70.7806452,40.0903298 70.3419355,39.7046477 Z M57.4,69.4782609 L49.8444444,69.4782609 L50.2824477,66.4347826 L56.9619968,66.4347826 L57.4,69.4782609 Z M69.4888889,63.8985507 C69.4888889,64.1521739 69.3794636,64.4057971 69.160613,64.6086957 C68.9417625,64.8115942 68.6681992,64.9130435 68.394636,64.9130435 L38.8498084,64.9130435 C38.5762452,64.9130435 38.302682,64.8115942 38.0838314,64.6086957 C37.8649808,64.4057971 37.7555556,64.1521739 37.7555556,63.8985507 L37.7555556,61.8695652 L69.4888889,61.8695652 L69.4888889,63.8985507 Z M55.1333333,63.3913043 L52.1111111,63.3913043 L52.1111111,62.6304348 L55.1333333,62.6304348 L55.1333333,63.3913043 Z M40.3580247,58.4898888 L40.3580247,42.5824065 L41.9950617,42.5824065 L41.9950617,41.4853387 L39.2666667,41.4853387 L39.2666667,59.5869565 L68.7333333,59.5869565 L68.7333333,41.4853387 L66.0049383,41.4853387 L66.0049383,42.5824065 L67.6419753,42.5824065 L67.6419753,58.4898888 L64.9135802,58.4898888 L64.9135802,39.6203236 L61.3120988,36 L43.0864198,36 L43.0864198,58.4898888 L40.3580247,58.4898888 Z M48.3333333,57.7193676 L49.3407407,57.7193676 L49.3407407,56.6126482 L48.3333333,56.6126482 L48.3333333,55.5059289 L49.3407407,55.5059289 L49.3407407,54.3992095 L48.3333333,54.3992095 L48.3333333,53.2924901 L49.3407407,53.2924901 L49.3407407,52.1857708 L48.3333333,52.1857708 L48.3333333,51.0790514 L49.3407407,51.0790514 L49.3407407,49.972332 L48.3333333,49.972332 L48.3333333,46.6521739 L51.3555556,46.6521739 L51.3555556,58.826087 L48.3333333,58.826087 L48.3333333,57.7193676 Z M55.8888889,47.4130435 L56.6444444,48.521106 L56.6444444,58.826087 L55.8888889,58.826087 L55.8888889,47.4130435 Z M58.9111111,58.826087 L58.1555556,58.826087 L58.1555556,48.521106 L58.9111111,47.4130435 L58.9111111,58.826087 Z M58.1555556,46.6521739 L56.6444444,45.2505721 L58.1555556,42.8478261 L59.6666667,45.2505721 L58.1555556,46.6521739 Z M61.9333333,37.5217391 L63.4444444,39.0434783 L61.9333333,39.0434783 L61.9333333,37.5217391 Z M43.8,36.7608696 L60.1703704,36.7608696 L60.1703704,40.0384615 L63.4444444,40.0384615 L63.4444444,58.0652174 L60.1703704,58.0652174 L60.1703704,45.5011148 C60.1703704,45.3918618 60.1703704,45.3372352 60.1158025,45.2279822 L57.9330864,41.4041249 C57.7148148,41.0763657 57.1691358,41.0763657 57.0054321,41.4041249 L54.822716,45.2279822 C54.7135802,45.3372352 54.7135802,45.3918618 54.7135802,45.5011148 L54.7135802,58.0652174 L52.5308642,58.0652174 L52.5308642,44.9548495 L47.0740741,44.9548495 L47.0740741,58.0652174 L43.8,58.0652174 L43.8,36.7608696 Z M50.6,47.4130435 L50.6,48.173913 L49.8444444,48.173913 L49.8444444,47.4130435 L50.6,47.4130435 Z M59.6666667,39.8043478 L45.3111111,39.8043478 L45.3111111,39.0434783 L59.6666667,39.0434783 L59.6666667,39.8043478 Z M52.8666667,42.0869565 L45.3111111,42.0869565 L45.3111111,41.326087 L52.8666667,41.326087 L52.8666667,42.0869565 Z" id="themes-icon"></path>
                    </g>
                </g>
            </g>
        </g>
    </g>
</svg>
